X:1
T:Pai Nosso
T:Pai Nosso
T:Pai Nosso
T:Carlos Cristovam Zink
T:2
%%score [ ( 1 2 ) ( 3 4 ) ]
L:1/8
Q:1/4=60
M:4/4
K:C
V:1 treble nm="Soprano\nContralto" snm="S/C"
V:2 treble 
V:3 bass nm="Tenor\nBaixo" snm="T/B"
V:4 bass 
V:1
"^Adagio"!p! (G4 c2 E2) | (G3 F) E4 |!<(! D4 E4!<)! | (F2 A2)!>(! (G2 F2) | (F4 E4)!>)! | %5
w: Pai * *|nos- * so,|que es-|tás * no *|céus, *|
!mf! e4 B2 d2 | d4 c4 |!mp! d4 A2 c2 | c4 B4 |!>(! (A2 e2) c2 A2 | (G4 ^F4) | G8!>)! | %12
w: San- ti- fi-|ca- do|se- jao Teu|no- me.|Ve- * nhao Teu|rei- *|no.|
!p! (G4 c2) E2 | (G3 F) E4 |!<(! B4!<)! c2 dd |!>(! c4 B4!>)! |!mf! A4 f2 d2 |!<(! c4 (B2 c2)!<)! | %18
w: Se- * ja|fei- * ta|a Tu- a- von-|ta- de|as- sim na|ter- ra *|
!f! (e2 d2)!>(! c2 B2 | c8!>)! |!mf! B4 c4 | (d4 c4) | B8 | d4 c2 B2 | (c4 B4) |!ff! c4 c2 c2 | %26
w: co- * mo nos|céus.|O pão|nos- *|so|de ca- da|di- *|a nos dá|
 e4 e4 |!p! E4 E4 | c4 ^G4 | A4 (^G2 A2) | B3 B B4 | d4 c4 |"^rit." B2 B2 A4 | A2 A2 (A2 ^G2) | %34
w: ho- je.|E per-|do- a|nos- sas *|dí- vi- das,|as- sim|co- mo nós|per- do- a- *|
!mf! A6"^a tempo" B2 |!<(! c2 c2 d2 d2!<)! | (c4!>(! B4) | c8!>)! |!f!"^accel." E2 G2 B2 (3ccc | %39
w: mos aos|nos- sos de- ve-|do- *||E não nos dei- xes ca-|
 B2 B2 B2 B2 |!ff! B6"^a tempo" B2 | c>c d>d e2 ee | f2 ee e2 d2 | c2 d>d e4 |!>(! d2 e2 (f2 e2) | %45
w: ir em ten- ta-|ção, mas|li- vra- nos do mal Por- que|Teu é o rei- no|e o po- der,|e a gló- *|
 d4"^rit." c2 c2 | (c4 B4)!>)! | c8 |!<(! c8!<)! |!>(! c8!>)! |] %50
w: ria pa- ra-|sem- *|pre.|A-|mém.|
V:2
 (E6 C2) | D4 C4 | B,4 C4 | (D2 F2) (E2 D2) | (D4 C4) | E4 E2 B2 | B4 A4 | A4 A2 A2 | A4 G4 | %9
 E4 E2 E2 | D8 | D8 | E6 C2 | D4 D4 | E4 E2 EE | E4 E4 | A4 A2 A2 | G4 G4 | G4 G2 G2 | G8 | E4 E4 | %21
 E8 | E8 | E4 E2 E2 | E8 | E4 E2 E2 | E4 E4 | E4 E4 | E4 E4 | E4 E4 | ^G3 G G4 | B4 A4 | F2 F2 E4 | %33
 D2 D2 E4 | E6 G2 | G2 G2 F2 F2 | (E4 D2 F2) | E8 | E2 G2 B2 (3AAA | G2 G2 ^F2 F2 | G6 G2 | %41
 G>G G>G G2 GG | A2 GG G2 G2 | E2 G>G G4 | G2 G2 (A2 G2) | G4 E2 E2 | (D4 G2 F2) | E8 | _E8 | E8 |] %50
V:3
!p! (C6 G,2) | G,4 G,4 |!<(! G,4 G,4!<)! | G,4!>(! G,4 | G,8!>)! | ^G,4 E2 E2 | E4 E4 | %7
!mp! D4 D2 D2 | D4 D4 |!>(! C4 C2 C2 | (B,4 A,2 C2) | B,8!>)! |!p! C6 G,2 | G,4 G,4 | %14
!<(! ^G,4!<)! A,2 B,B, |!>(! A,4 ^G,4!>)! |!mf! C4 D2 F2 |!<(! E4 (D2 E2)!<)! | %18
!f! F2 E2!>(! D2 D2 | E8!>)! |!mf! ^G,4 A,4 | (B,4 A,4) | ^G,8 | ^G,4 A,2 G,2 | (A,4 ^G,4) | %25
!ff! A,4 A,2 A,2 | ^G,4 G,4 |!p! E,4 E,4 | A,4 D4 | C4 (B,2 C2) | E3 E E4 | E4 E4 | D2 D2 C4 | %33
 D2 D2 (C2 B,D) |!mf! C6 D2 |!<(! C2 C2 A,2 A,2!<)! | G,8 | G,8 |!f! E,2 G,2 B,2 (3EEE | %39
 E2 E2 ^D2 D2 |!ff! E6 D2 | C>C B,>B, C2 CC | C2 CC C2 B,2 | C2 B,>B, C4 |!>(! B,2 B,2 B,4 | %45
 B,4 B,2 B,2 | (A,4 D4)!>)! | C8 |!<(! _A,8!<)! |!>(! G,8!>)! |] %50
V:4
 C,8 | B,,4 C,4 | G,,4 G,,4 | G,,4 (G,,2 A,,)B,, | C,8 | E,4 =G,2 G,2 | A,4 A,4 | ^F,4 F,2 F,2 | %8
 G,4 G,4 | C,4 C,2 C,2 | D,8 | G,,8 | C,6 C,2 | B,,4 C,4 | E,4 E,2 E,E, | E,4 E,4 | F,4 F,2 F,2 | %17
 G,4 G,4 | G,4 G,2 G,2 | C,8 | E,4 E,4 | E,8 | E,8 | E,4 E,2 E,2 | E,8 | A,,4 A,2 A,2 | E,4 E,4 | %27
 E,4 D,4 | C,4 B,,4 | A,,4 E,4 | E,3 E, E,4 | ^G,4 A,4 | D,2 D,2 E,4 | F,2 G,2 E,4 | A,,6 G,F, | %35
 E,2 E,2 F,2 F,2 | (G,4!>(! G,,4) | C,8!>)! | E,2 G,2 B,2 (3A,A,A, | B,2 B,2 B,,2 B,,2 | E,6 G,F, | %41
 E,>E, D,>D, C,2 C,C, | F,2 C,C, G,2 G,2 | A,2 G,>G, C,4 | G,2 C,2 (F,2 C,2) | G,4 A,2 A,2 | %46
 (F,4 G,4) | C,8 | _A,,8 | C,8 |] %50

